symbols/web/e911_avatar/materialsymbolssharp/e911_avatar_wght300gradN25fill1_40px.svg

<svg xmlns="http://www.w3.org/2000/svg" height="40" width="40"><path d="M27.333 12.5V4.167h2V12.5Zm1 5.417q-.458 0-.771-.313-.312-.312-.312-.771 0-.458.312-.771.313-.312.771-.312.459 0 .792.312.333.313.333.771 0 .459-.333.771-.333.313-.792.313Zm3.834 15.958q-4.625 0-9.292-2.313-4.667-2.312-8.396-6.062-3.729-3.75-6.083-8.417-2.354-4.666-2.354-9.291 0-.417.041-.896.042-.479.125-.896h7.875l1.542 7.167L11 17.708q2.25 3.792 5.083 6.584 2.834 2.791 6.542 4.875l4.583-4.709 6.75 1.417v7.875q-.375.042-.875.083-.5.042-.916.042Z"/></svg>

<svg xmlns="http://www.w3.org/2000/svg" height="40" width="40"><path d="M27.333 12.5V4.167H29.333V12.5ZM28.333 17.917Q27.875 17.917 27.562 17.604Q27.25 17.292 27.25 16.833Q27.25 16.375 27.562 16.062Q27.875 15.75 28.333 15.75Q28.792 15.75 29.125 16.062Q29.458 16.375 29.458 16.833Q29.458 17.292 29.125 17.604Q28.792 17.917 28.333 17.917ZM32.167 33.875Q27.542 33.875 22.875 31.562Q18.208 29.25 14.479 25.5Q10.75 21.75 8.396 17.083Q6.042 12.417 6.042 7.792Q6.042 7.375 6.083 6.896Q6.125 6.417 6.208 6H14.083L15.625 13.167L11 17.708Q13.25 21.5 16.083 24.292Q18.917 27.083 22.625 29.167L27.208 24.458L33.958 25.875V33.75Q33.583 33.792 33.083 33.833Q32.583 33.875 32.167 33.875Z"/></svg>
